X:1
T:Newkirk, 10.10.10.10 D
T:Newkirk, 10.10.10.10 D
T:Abraham Dow Merrill, 1845
T:Public Domain Courtesy of the Cyber Hymnal™
C:Abraham Dow Merrill, 1845
Z:Public Domain
Z:Courtesy of the Cyber Hymnal™
%%score ( 1 2 ) ( 3 4 )
L:1/8
Q:1/4=130
M:3/4
K:G
V:1 treble 
V:2 treble 
V:3 bass 
V:4 bass 
V:1
|: [DG]3 [DF] [DG]2 | [FA]3 [EG] [FA]2 | [GB]3 [DA] G2 | [FA]6 | [DG]3 [DA] [DB]2 | %5
 [Gc]3 [GB] [EA]2 | [DG]2 [DB]2 [DA]2 | [DG]6 :| [Dd]3 [Dc] [DB]2 | [Dc]3 [DB] [DA]2 | %10
 [DB]3 [DA] G2 | [FA]6 | [Dd]3 [Dc] [DB]2 | [Dc]3 [DB] [DA]2 | [DB]3 [DA] G2 | [FA]6 | %16
 [DG]3 [DF] [DG]2 | [FA]3 [EG] [FA]2 | [GB]3 [DA] G2 | [FA]6 | [Gd]3 [Gc] [GB]2 | %21
 [Ac]3 [GB] [EA]2 | [DG]2 [DB]2 [DA]2 | [DG]6 |] %24
V:2
|: x6 | x6 | x4 G2 | x6 | x6 | x6 | x6 | x6 :| x6 | x6 | x4 G2 | x6 | x6 | x6 | x4 G2 | x6 | x6 | %17
 x6 | x4 G2 | x6 | x6 | x6 | x6 | x6 |] %24
V:3
|: [G,B,]3 [F,A,] [G,B,]2 | [D,D]3 [D,D] [D,D]2 | G,3 [F,A,] [G,B,]2 | [D,D]6 | %4
 [G,B,]3 [G,C] [G,D]2 | [C,E]3 [C,D] [C,C]2 | [D,B,]2 [D,D]2 [D,C]2 | [G,,B,]6 :| %8
 [G,B,]3 [G,A,] G,2 | [D,A,]3 [D,G,] [D,F,]2 | G,3 [F,A,] [E,B,]2 | [D,D]6 | [G,B,]3 [G,A,] G,2 | %13
 [D,A,]3 [D,G,] [D,F,]2 | G,3 [F,A,] [E,B,]2 | [D,D]6 | [G,,G,B,]3 [A,,F,A,] [G,,G,B,]2 | %17
 [D,D]3 [D,D] [D,D]2 | G,3 [F,A,] [G,B,]2 | [D,D]6 | [G,B,]3 [G,C] [G,D]2 | [C,E]3 [C,D] [C,C]2 | %22
 [D,B,]2 [D,D]2 [D,C]2 | [G,,B,]6 |] %24
V:4
|: x6 | x6 | G,3 x3 | x6 | x6 | x6 | x6 | x6 :| x4 G,2 | x6 | G,3 x3 | x6 | x4 G,2 | x6 | G,3 x3 | %15
 x6 | x6 | x6 | G,3 x3 | x6 | x6 | x6 | x6 | x6 |] %24

